princeofwalestrophy.svg

<?xml version="1.0" encoding="utf-8"?>
<!-- Generator: Adobe Illustrator 16.0.0, SVG Export Plug-In . SVG Version: 6.00 Build 0)  -->
<!DOCTYPE svg PUBLIC "-//W3C//DTD SVG 1.1//EN" "http://www.w3.org/Graphics/SVG/1.1/DTD/svg11.dtd">
<svg version="1.1" id="Layer_1" xmlns="http://www.w3.org/2000/svg" xmlns:xlink="http://www.w3.org/1999/xlink" x="0px" y="0px"
	 width="222px" height="500px" viewBox="0 0 222 500" enable-background="new 0 0 222 500" xml:space="preserve">
<path fill="#5B4B50" d="M107.791,491.936l-98.155-4.299l-0.179-71.971l11.012-0.744l-0.744-11.014l14.468-8.333l-2.406-14.416
	c0,0,48.569-34.265,48.671-45.271c0.103-11.006-15.833-209.282-20.825-218.642c-4.992-9.36-7.469-16.156-4.036-21.204
	c3.433-5.049-8.378-9.392-8.378-9.392s-10.181,2.446-5.886-4.288c4.295-6.734,28.936-16.665,38.263-18.272
	c9.326-1.607,5.964-4.178,5.964-4.178l14.453-6.64l3.456-7.588l-8.331-14.471c0,0-6.787,1.63-7.578-4.304
	c-0.792-5.934,9.405-10.073,14.444-5.793c-3.323-6.804-2.382-16.956,8.575-11.774c11.011-0.744,11.817,3.497,10.062,10.254
	c11.004,0.102,22.799,6.138,8.293,18.704c-4.232-0.039-3.34-5.111-3.34-5.111l-7.728,11.782l1.614,8.482l8.434,3.465l7.563,5.997
	c0,0,39.758,2.909,44.664,21.582c-2.578,4.21-7.648,3.316-7.648,3.316s-5.11,3.339-6.02,10.105
	c-0.91,6.765,3.314,7.651-4.422,20.279c-4.232-0.039-28.689,172.461-21.464,214.862c11.646,22.122,40.212,45.248,40.212,45.248
	s3.292,10.191-1.043,21.158c0.807,4.241,19.43,4.414,19.43,4.414l-0.071,7.619l12.626,7.738l1.135,60.126
	C212.875,479.364,190.734,493.552,107.791,491.936z"/>
</svg>

<svg xmlns="http://www.w3.org/2000/svg" xmlns:xlink="http://www.w3.org/1999/xlink" preserveAspectRatio="xMidYMid" width="222" height="500" viewBox="0 0 222 500">
  <defs>
    <style>
      .cls-1 {
        fill: #000;
        fill-rule: evenodd;
      }
    </style>
  </defs>
  <path d="M107.791,491.936 L9.636,487.637 L9.457,415.666 L20.469,414.922 L19.725,403.908 L34.193,395.575 L31.787,381.159 C31.787,381.159 80.356,346.895 80.458,335.889 C80.561,324.883 64.625,126.607 59.633,117.247 C54.641,107.887 52.164,101.091 55.597,96.043 C59.030,90.994 47.219,86.651 47.219,86.651 C47.219,86.651 37.038,89.097 41.333,82.363 C45.628,75.629 70.269,65.698 79.596,64.091 C88.922,62.484 85.560,59.913 85.560,59.913 L100.013,53.273 L103.469,45.685 L95.138,31.214 C95.138,31.214 88.351,32.844 87.560,26.910 C86.768,20.976 96.965,16.837 102.004,21.117 C98.681,14.313 99.622,4.161 110.579,9.343 C121.590,8.599 122.397,12.840 120.641,19.597 C131.645,19.699 143.440,25.735 128.933,38.301 C124.701,38.262 125.594,33.190 125.594,33.190 L117.866,44.972 L119.481,53.454 L127.914,56.919 L135.476,62.916 C135.476,62.916 175.235,65.825 180.141,84.498 C177.562,88.708 172.492,87.814 172.492,87.814 C172.492,87.814 167.382,91.153 166.472,97.919 C165.563,104.684 169.787,105.570 162.051,118.198 C157.819,118.159 133.362,290.659 140.587,333.061 C152.233,355.183 180.799,378.309 180.799,378.309 C180.799,378.309 184.091,388.500 179.756,399.467 C180.563,403.708 199.185,403.881 199.185,403.881 L199.114,411.500 L211.740,419.238 L212.875,479.364 C212.875,479.364 190.734,493.552 107.791,491.936 Z" class="cls-1"/>
</svg>
